X: 1426
T: Father's Last September Piggle Nor
B: australian traditional tunes wiki
M:2/4
L:1/16
Q: 1/4=100
K:D
V:1 
|:A2|"D"d2d2 d2d2|d4c2d2|"A"e2A2 A2B2|A4c2d2|e2e2 e2e2|a4a2g2|"D"f2d2 d2d2|d2A2 B2c2|!
d4a4|"D7"f4d4|"G"B3B B2B2|g4g4|"D"f3f a2a2|f4d4|"A"e2e2 c2c2|"D"d4d2:|
% abcbook-tune_id 6342d53a1c5859395715b125


% abcbook-boost 0
% abcbook-tablature 
% abcbook-transpose 
% abcbook-lastupdated 1665324364559
% abcbook-soundfonts 
% abcbook-repeats 1
% NFF Book 2013

